X:1
%
T:Hornpipe [41]
T:Sancho's Hornpipe
C:Ignatius Sancho
M:C
L:1/8
R:Hornpipe
B:Sancho - Minuets &c. &c. for the Violin, Mandolin, German
B:Flute and Harpsichord, Book 2d (1769, p. 16)
N:"Composed by an African"
Z:AK/Fiddler's Companion
K:Bb
B2g2Tg2 fe|dcBA BFED|EFGE DEFD|Cedc BAGF|
B2g2 Tg2fe|dcBA BFED|EFGE DEFD|C2 A2 B4:|
|:d2g2Tg2 a2|bag^f g2d2|eccc dBBB|ABcA B2G2|
eccc df b2|cAAA cf a2|BcdB gfed|edcB A2F2|
B2g2Tg2 fe|dcBA BFED|EFGE DEFD|Cedc BAGF|
B2g2Tg2 fe|dcBA BFED|EFGE DEFD|C2 A2 B4:|]

